;FLAVOR:Marlin
;TIME:10575
;Filament used: 8.68485m
;Layer height: 0.2
;MINX:41.501
;MINY:41.324
;MINZ:0.2
;MAXX:193.5
;MAXY:209.824
;MAXZ:8
;TARGET_MACHINE.NAME:Creality Ender-3
;Generated with Cura_SteamEngine 5.10.0
M140 S50
M105
M190 S50
M104 S200
M105
M109 S200
; Ender 3 Custom Start G-code
G92 E0 ; Reset Extruder
G28 ; Home all axes
G1 Z2.0 F3000 ; Move Z Axis up little to prevent scratching of Heat Bed
G1 X0.1 Y20 Z0.3 F5000.0 ; Move to start position
G1 X0.1 Y200.0 Z0.3 F1500.0 E15 ; Draw the first line
G1 X0.4 Y200.0 Z0.3 F5000.0 ; Move to side a little
G1 X0.4 Y20 Z0.3 F1500.0 E30 ; Draw the second line
G92 E0 ; Reset Extruder
G1 Z2.0 F3000 ; Move Z Axis up little to prevent scratching of Heat Bed
G1 X5 Y20 Z0.3 F5000.0 ; Move over to prevent blob squish
M82 ;absolute extrusion mode
G92 E0
G92 E0
G1 F2700 E-5
;LAYER_COUNT:40
;LAYER:0
M107
G0 F6000 X44.969 Y44.325 Z0.2
;TYPE:SKIRT
G1 F2700 E0
G1 F1200 X45.679 Y43.711 E0.03122
G1 X46.498 Y43.121 E0.06479
G1 X47.337 Y42.625 E0.09721
G1 X48.151 Y42.234 E0.12724
G1 X49.128 Y41.866 E0.16197
G1 X50.032 Y41.616 E0.19316
G1 X51.034 Y41.433 E0.22704
G1 X52.205 Y41.337 E0.26612
G1 X52.812 Y41.324 E0.28631
G1 X181.804 Y41.324 E4.57661
G1 X182.684 Y41.337 E4.60588
G1 X183.656 Y41.396 E4.63827
G1 X184.619 Y41.542 E4.67066
G1 X185.566 Y41.773 E4.70308
G1 X186.454 Y42.073 E4.73426
G1 X187.346 Y42.463 E4.76664
G1 X188.229 Y42.95 E4.80018
G1 X188.98 Y43.452 E4.83022
G1 X189.795 Y44.11 E4.86506
G1 X190.493 Y44.788 E4.89742
G1 X191.129 Y45.525 E4.9298
G1 X191.699 Y46.315 E4.9622
G1 X192.161 Y47.091 E4.99224
G1 X192.615 Y48.033 E5.02702
G1 X192.944 Y48.911 E5.05821
G1 X193.213 Y49.883 E5.09175
G1 X193.39 Y50.849 E5.12442
G1 X193.485 Y51.979 E5.16213
G1 X193.5 Y52.654 E5.18459
G1 X193.499 Y83.264 E6.20268
G1 X193.492 Y83.813 E6.22094
G1 X193.46 Y84.491 E6.24352
G1 X193.388 Y85.412 E6.27424
G1 X193.319 Y86.074 E6.29638
G1 X193.171 Y86.997 E6.32747
G1 X192.967 Y87.831 E6.35603
G1 X192.749 Y88.572 E6.38172
G1 X192.588 Y89.082 E6.39951
G1 X192.252 Y89.993 E6.4318
G1 X191.894 Y90.761 E6.45998
G1 X191.535 Y91.449 E6.4858
G1 X191.25 Y91.963 E6.50534
G1 X190.758 Y92.763 E6.53658
G1 X190.139 Y93.593 E6.57102
G1 X189.506 Y94.361 E6.60412
G1 X188.852 Y95.084 E6.63655
G1 X188.128 Y95.755 E6.66938
G1 X187.518 Y96.265 E6.69582
G1 X185.129 Y98.214 E6.79837
G1 X183.228 Y99.864 E6.88209
G1 X181.373 Y101.568 E6.96587
G1 X179.559 Y103.331 E7.05
G1 X177.803 Y105.14 E7.13386
G1 X176.093 Y107.001 E7.21792
G1 X174.478 Y108.861 E7.29985
G1 X172.843 Y110.858 E7.38569
G1 X171.332 Y112.81 E7.46779
G1 X169.845 Y114.852 E7.55181
G1 X168.404 Y116.952 E7.63652
G1 X167.049 Y119.051 E7.71961
G1 X165.751 Y121.195 E7.80297
G1 X164.499 Y123.397 E7.88722
G1 X163.311 Y125.632 E7.97141
G1 X162.203 Y127.869 E8.05444
G1 X161.164 Y130.127 E8.13711
G1 X160.154 Y132.49 E8.22258
G1 X159.227 Y134.846 E8.30679
G1 X158.38 Y137.189 E8.38965
G1 X157.598 Y139.562 E8.47275
G1 X156.868 Y142.004 E8.55752
G1 X156.223 Y144.41 E8.64037
G1 X155.639 Y146.865 E8.72431
G1 X155.123 Y149.345 E8.80856
G1 X154.679 Y151.824 E8.89232
G1 X154.308 Y154.299 E8.97556
G1 X154.002 Y156.82 E9.06002
G1 X153.773 Y159.293 E9.14263
G1 X153.612 Y161.808 E9.22645
G1 X153.521 Y164.355 E9.31122
G1 X153.5 Y166.261 E9.37461
G1 X153.499 Y190.765 E10.18962
G1 X153.49 Y191.454 E10.21254
G1 X153.462 Y192.076 E10.23325
G1 X153.38 Y193.154 E10.26921
G1 X153.32 Y193.74 E10.2888
G1 X153.179 Y194.69 E10.32074
G1 X153.051 Y195.268 E10.34043
G1 X152.786 Y196.304 E10.376
G1 X152.627 Y196.869 E10.39552
G1 X152.344 Y197.727 E10.42557
G1 X152.087 Y198.355 E10.44814
G1 X151.777 Y199.05 E10.47345
G1 X151.382 Y199.872 E10.50378
G1 X150.939 Y200.691 E10.53475
G1 X150.614 Y201.202 E10.55489
G1 X150.194 Y201.821 E10.57977
G1 X149.648 Y202.586 E10.61103
G1 X149.052 Y203.338 E10.64295
G1 X148.667 Y203.76 E10.66195
G1 X148.115 Y204.329 E10.68832
G1 X147.475 Y204.955 E10.71809
G1 X146.801 Y205.555 E10.7481
G1 X146.298 Y205.944 E10.76925
G1 X145.677 Y206.394 E10.79476
G1 X144.905 Y206.922 E10.82587
G1 X144.111 Y207.409 E10.85685
G1 X143.595 Y207.678 E10.8762
G1 X142.578 Y208.169 E10.91376
G1 X142.059 Y208.401 E10.93267
G1 X141.219 Y208.733 E10.96271
G1 X140.609 Y208.928 E10.98401
G1 X139.852 Y209.143 E11.01019
G1 X139 Y209.364 E11.03946
G1 X138.057 Y209.558 E11.07148
G1 X137.447 Y209.637 E11.09194
G1 X136.409 Y209.74 E11.12664
G1 X135.8 Y209.785 E11.14695
G1 X135.192 Y209.811 E11.16719
G1 X134.424 Y209.821 E11.19273
G1 X100.697 Y209.824 E12.3145
G1 X99.868 Y209.814 E12.34207
G1 X99.247 Y209.787 E12.36275
G1 X98.492 Y209.732 E12.38792
G1 X97.565 Y209.641 E12.41891
G1 X96.614 Y209.5 E12.45088
G1 X96.038 Y209.372 E12.47051
G1 X95.036 Y209.115 E12.50491
G1 X94.457 Y208.952 E12.52492
G1 X93.546 Y208.649 E12.55685
G1 X92.979 Y208.414 E12.57726
G1 X92.258 Y208.092 E12.60353
G1 X91.457 Y207.708 E12.63307
G1 X90.662 Y207.28 E12.6631
G1 X90.113 Y206.931 E12.68474
G1 X89.503 Y206.518 E12.70924
G1 X88.738 Y205.972 E12.7405
G1 X88.03 Y205.412 E12.77052
G1 X87.546 Y204.97 E12.79233
G1 X86.771 Y204.215 E12.82831
G1 X86.368 Y203.799 E12.84758
G1 X85.768 Y203.124 E12.87761
G1 X85.38 Y202.622 E12.89872
G1 X84.93 Y202.001 E12.92422
G1 X84.4 Y201.226 E12.95545
G1 X83.899 Y200.408 E12.98736
G1 X83.639 Y199.908 E13.0061
G1 X83.291 Y199.192 E13.03258
G1 X82.924 Y198.386 E13.06203
G1 X82.591 Y197.547 E13.09206
G1 X82.396 Y196.932 E13.11351
G1 X82.1 Y195.882 E13.1498
G1 X81.958 Y195.318 E13.16914
G1 X81.766 Y194.377 E13.20109
G1 X81.688 Y193.781 E13.22108
G1 X81.611 Y193.034 E13.24605
G1 X81.54 Y192.131 E13.27618
G1 X81.513 Y191.515 E13.29669
G1 X81.501 Y190.737 E13.32257
G1 X81.5 Y166.329 E14.13438
G1 X81.463 Y163.735 E14.22067
G1 X81.354 Y161.191 E14.30536
G1 X81.178 Y158.706 E14.38822
G1 X80.931 Y156.211 E14.47161
G1 X80.61 Y153.704 E14.55567
G1 X80.22 Y151.221 E14.63927
G1 X79.758 Y148.736 E14.72334
G1 X79.234 Y146.296 E14.80634
G1 X78.638 Y143.875 E14.88927
G1 X77.958 Y141.394 E14.97483
G1 X77.232 Y139.027 E15.05718
G1 X76.421 Y136.625 E15.1415
G1 X75.539 Y134.232 E15.22632
G1 X74.618 Y131.942 E15.30842
G1 X73.603 Y129.608 E15.39307
G1 X72.542 Y127.345 E15.4762
G1 X71.402 Y125.082 E15.56048
G1 X70.201 Y122.857 E15.64458
G1 X68.966 Y120.718 E15.72673
G1 X67.623 Y118.537 E15.81192
G1 X66.252 Y116.443 E15.89516
G1 X64.815 Y114.381 E15.97876
G1 X63.321 Y112.357 E16.06243
G1 X61.753 Y110.356 E16.14698
G1 X60.169 Y108.448 E16.22946
G1 X58.476 Y106.524 E16.3147
G1 X56.788 Y104.71 E16.39711
G1 X55.03 Y102.924 E16.48047
G1 X53.2 Y101.169 E16.5648
G1 X51.315 Y99.461 E16.6494
G1 X49.428 Y97.846 E16.73201
G1 X47.309 Y96.125 E16.82281
G1 X46.856 Y95.742 E16.84254
G1 X46.168 Y95.106 E16.8737
G1 X45.565 Y94.447 E16.90341
G1 X45.058 Y93.84 E16.92971
G1 X44.718 Y93.411 E16.94792
G1 X44.152 Y92.626 E16.98011
G1 X43.735 Y91.938 E17.00687
G1 X43.366 Y91.263 E17.03245
G1 X43.091 Y90.728 E17.05246
G1 X42.694 Y89.861 E17.08418
G1 X42.393 Y89.028 E17.11364
G1 X42.187 Y88.363 E17.13679
G1 X42.029 Y87.816 E17.15573
G1 X41.817 Y86.938 E17.18577
G1 X41.681 Y86.073 E17.21489
G1 X41.623 Y85.573 E17.23163
G1 X41.562 Y84.901 E17.25408
G1 X41.527 Y84.238 E17.27616
G1 X41.502 Y83.024 E17.31655
G1 X41.501 Y52.833 E18.3207
G1 X41.513 Y52.132 E18.34402
G1 X41.573 Y51.159 E18.37644
G1 X41.72 Y50.198 E18.40878
G1 X41.951 Y49.25 E18.44123
G1 X42.253 Y48.361 E18.47246
G1 X42.66 Y47.439 E18.50598
G1 X43.131 Y46.587 E18.53836
G1 X43.676 Y45.778 E18.5708
G1 X44.267 Y45.05 E18.60199
G1 X44.969 Y44.325 E18.63556
G0 F6000 X45.231 Y44.628
G1 F1200 X45.941 Y44.014 E18.66678
G1 X46.702 Y43.465 E18.69799
G1 X47.51 Y42.986 E18.72923
G1 X48.324 Y42.595 E18.75926
G1 X49.235 Y42.252 E18.79164
G1 X50.139 Y42.002 E18.82284
G1 X51.067 Y41.832 E18.85422
G1 X52.214 Y41.737 E18.8925
G1 X52.821 Y41.724 E18.91269
G1 X181.798 Y41.724 E23.20248
G1 X182.66 Y41.736 E23.23115
G1 X183.597 Y41.792 E23.26237
G1 X184.525 Y41.931 E23.29358
G1 X185.438 Y42.152 E23.32483
G1 X186.294 Y42.44 E23.35487
G1 X187.186 Y42.83 E23.38725
G1 X188.007 Y43.283 E23.41843
G1 X188.758 Y43.785 E23.44848
G1 X189.517 Y44.397 E23.48091
G1 X190.191 Y45.05 E23.51212
G1 X190.805 Y45.759 E23.54332
G1 X191.355 Y46.52 E23.57454
G1 X191.817 Y47.296 E23.60458
G1 X192.24 Y48.173 E23.63697
G1 X192.569 Y49.051 E23.66815
G1 X192.82 Y49.956 E23.69939
G1 X192.991 Y50.883 E23.73074
G1 X193.086 Y52.013 E23.76846
G1 X193.1 Y52.654 E23.78978
G1 X193.099 Y83.259 E24.80771
G1 X193.092 Y83.794 E24.82551
G1 X193.061 Y84.46 E24.84768
G1 X192.99 Y85.371 E24.87807
G1 X192.924 Y86.011 E24.89947
G1 X192.782 Y86.902 E24.92948
G1 X192.583 Y87.718 E24.95742
G1 X192.368 Y88.451 E24.98282
G1 X192.212 Y88.944 E25.00002
G1 X191.889 Y89.824 E25.0312
G1 X191.539 Y90.576 E25.05879
G1 X191.185 Y91.255 E25.08426
G1 X190.909 Y91.753 E25.10319
G1 X190.417 Y92.553 E25.13443
G1 X189.83 Y93.339 E25.16706
G1 X189.209 Y94.093 E25.19955
G1 X188.58 Y94.791 E25.2308
G1 X187.872 Y95.448 E25.26292
G1 X187.265 Y95.955 E25.28923
G1 X184.876 Y97.904 E25.39178
G1 X182.957 Y99.569 E25.47628
G1 X181.102 Y101.273 E25.56005
G1 X179.28 Y103.044 E25.64457
G1 X177.508 Y104.869 E25.72917
G1 X175.798 Y106.73 E25.81323
G1 X174.168 Y108.608 E25.89594
G1 X172.533 Y110.605 E25.98178
G1 X171.016 Y112.565 E26.06422
G1 X169.515 Y114.626 E26.14902
G1 X168.074 Y116.726 E26.23373
G1 X166.713 Y118.834 E26.31718
G1 X165.403 Y120.997 E26.40129
G1 X164.151 Y123.199 E26.48554
G1 X162.958 Y125.444 E26.5701
G1 X161.845 Y127.691 E26.6535
G1 X160.796 Y129.97 E26.73694
G1 X159.786 Y132.333 E26.82241
G1 X158.855 Y134.7 E26.90701
G1 X158.004 Y137.053 E26.99023
G1 X157.218 Y139.437 E27.07372
G1 X156.485 Y141.889 E27.15884
G1 X155.837 Y144.306 E27.24207
G1 X155.247 Y146.784 E27.32679
G1 X154.731 Y149.264 E27.41105
G1 X154.285 Y151.753 E27.49515
G1 X153.912 Y154.24 E27.57879
G1 X153.605 Y156.772 E27.66362
G1 X153.375 Y159.256 E27.7466
G1 X153.212 Y161.794 E27.83118
G1 X153.121 Y164.341 E27.91595
G1 X153.1 Y166.257 E27.97968
G1 X153.099 Y190.76 E28.79465
G1 X153.09 Y191.436 E28.81714
G1 X153.063 Y192.046 E28.83745
G1 X152.982 Y193.113 E28.87304
G1 X152.924 Y193.682 E28.89206
G1 X152.788 Y194.604 E28.92306
G1 X152.663 Y195.169 E28.94231
G1 X152.401 Y196.196 E28.97756
G1 X152.247 Y196.744 E28.99649
G1 X151.964 Y197.602 E29.02654
G1 X151.722 Y198.192 E29.04775
G1 X151.416 Y198.877 E29.0727
G1 X151.03 Y199.682 E29.1024
G1 X150.601 Y200.476 E29.13241
G1 X150.276 Y200.987 E29.15256
G1 X149.869 Y201.589 E29.17673
G1 X149.334 Y202.338 E29.20734
G1 X148.756 Y203.068 E29.23831
G1 X148.371 Y203.49 E29.25731
G1 X147.835 Y204.043 E29.28292
G1 X147.209 Y204.656 E29.31206
G1 X146.535 Y205.256 E29.34208
G1 X146.063 Y205.62 E29.3619
G1 X145.451 Y206.064 E29.38705
G1 X144.696 Y206.581 E29.41748
G1 X143.902 Y207.068 E29.44846
G1 X143.421 Y207.318 E29.46649
G1 X142.415 Y207.804 E29.50365
G1 X141.912 Y208.029 E29.52198
G1 X141.072 Y208.361 E29.55202
G1 X140.5 Y208.543 E29.57199
G1 X139.751 Y208.756 E29.59789
G1 X138.919 Y208.972 E29.62648
G1 X138.005 Y209.161 E29.65752
G1 X137.408 Y209.239 E29.67754
G1 X136.38 Y209.341 E29.7119
G1 X135.783 Y209.385 E29.73181
G1 X135.186 Y209.411 E29.75169
G1 X134.421 Y209.422 E29.77714
G1 X100.702 Y209.424 E30.89863
G1 X99.885 Y209.414 E30.92581
G1 X99.276 Y209.388 E30.94608
G1 X98.531 Y209.334 E30.97093
G1 X97.623 Y209.245 E31.00127
G1 X96.701 Y209.109 E31.03227
G1 X96.137 Y208.984 E31.05148
G1 X95.144 Y208.73 E31.08557
G1 X94.583 Y208.572 E31.10496
G1 X93.699 Y208.279 E31.13593
G1 X93.142 Y208.049 E31.15598
G1 X92.431 Y207.731 E31.18188
G1 X91.647 Y207.356 E31.21079
G1 X90.852 Y206.928 E31.24082
G1 X90.337 Y206.6 E31.26113
G1 X89.735 Y206.193 E31.2853
G1 X88.986 Y205.658 E31.31591
G1 X88.278 Y205.098 E31.34593
G1 X87.825 Y204.684 E31.36635
G1 X87.058 Y203.936 E31.40198
G1 X86.667 Y203.533 E31.42065
G1 X86.067 Y202.858 E31.45069
G1 X85.704 Y202.387 E31.47047
G1 X85.26 Y201.775 E31.49562
G1 X84.741 Y201.017 E31.52617
G1 X84.254 Y200.223 E31.55715
G1 X83.999 Y199.733 E31.57553
G1 X83.655 Y199.026 E31.60168
G1 X83.296 Y198.238 E31.63048
G1 X82.963 Y197.399 E31.6605
G1 X82.781 Y196.824 E31.68056
G1 X82.488 Y195.784 E31.7165
G1 X82.35 Y195.238 E31.73523
G1 X82.163 Y194.325 E31.76622
G1 X82.086 Y193.74 E31.78585
G1 X82.01 Y193.003 E31.81049
G1 X81.94 Y192.113 E31.84019
G1 X81.913 Y191.509 E31.86029
G1 X81.901 Y190.737 E31.88597
G1 X81.9 Y166.329 E32.69779
G1 X81.863 Y163.729 E32.78427
G1 X81.754 Y161.174 E32.86933
G1 X81.577 Y158.678 E32.95256
G1 X81.328 Y156.16 E33.03671
G1 X81.007 Y153.653 E33.12078
G1 X80.615 Y151.159 E33.20475
G1 X80.151 Y148.663 E33.28919
G1 X79.625 Y146.212 E33.37256
G1 X79.024 Y143.769 E33.45624
G1 X78.343 Y141.288 E33.54181
G1 X77.611 Y138.899 E33.62491
G1 X76.8 Y136.497 E33.70924
G1 X75.914 Y134.094 E33.79442
G1 X74.985 Y131.782 E33.87729
G1 X73.97 Y129.448 E33.96194
G1 X72.904 Y127.175 E34.04545
G1 X71.759 Y124.902 E34.1301
G1 X70.553 Y122.667 E34.21456
G1 X69.307 Y120.508 E34.29747
G1 X67.964 Y118.327 E34.38266
G1 X66.587 Y116.224 E34.46627
G1 X65.137 Y114.143 E34.55063
G1 X63.643 Y112.119 E34.6343
G1 X62.068 Y110.109 E34.71923
G1 X60.476 Y108.192 E34.80211
G1 X58.776 Y106.26 E34.88771
G1 X57.073 Y104.429 E34.97088
G1 X55.315 Y102.643 E35.05423
G1 X53.477 Y100.88 E35.13894
G1 X51.584 Y99.165 E35.22389
G1 X49.68 Y97.535 E35.30726
G1 X47.567 Y95.819 E35.39779
G1 X47.128 Y95.448 E35.41691
G1 X46.44 Y94.812 E35.44807
G1 X45.872 Y94.191 E35.47606
G1 X45.371 Y93.591 E35.50206
G1 X45.042 Y93.177 E35.51965
G1 X44.494 Y92.418 E35.55079
G1 X44.086 Y91.746 E35.57693
G1 X43.722 Y91.08 E35.60218
G1 X43.455 Y90.561 E35.62159
G1 X43.058 Y89.694 E35.65331
G1 X42.775 Y88.91 E35.68103
G1 X42.571 Y88.252 E35.70394
G1 X42.418 Y87.722 E35.72229
G1 X42.206 Y86.844 E35.75233
G1 X42.078 Y86.027 E35.77984
G1 X42.021 Y85.537 E35.79624
G1 X41.961 Y84.88 E35.81819
G1 X41.927 Y84.23 E35.83983
G1 X41.902 Y83.024 E35.87995
G1 X41.901 Y52.839 E36.88391
G1 X41.912 Y52.156 E36.90663
G1 X41.969 Y51.219 E36.93785
G1 X42.109 Y50.292 E36.96904
G1 X42.33 Y49.379 E37.00028
G1 X42.632 Y48.49 E37.03151
G1 X43.01 Y47.632 E37.06269
G1 X43.463 Y46.81 E37.09391
G1 X43.987 Y46.03 E37.12516
G1 X44.578 Y45.302 E37.15635
G1 X45.231 Y44.628 E37.18756
G0 F6000 X45.493 Y44.93
G1 F1200 X46.175 Y44.338 E37.2176
G1 X46.907 Y43.809 E37.24764
G1 X47.683 Y43.347 E37.27768
G1 X48.497 Y42.956 E37.30771
G1 X49.342 Y42.637 E37.33775
G1 X50.212 Y42.395 E37.36779
G1 X51.1 Y42.231 E37.39782
G1 X52.223 Y42.137 E37.4353
G1 X52.83 Y42.124 E37.4555
G1 X181.793 Y42.124 E41.74482
G1 X182.637 Y42.135 E41.7729
G1 X183.539 Y42.188 E41.80295
G1 X184.432 Y42.32 E41.83297
G1 X185.31 Y42.531 E41.86301
G1 X186.166 Y42.819 E41.89305
G1 X186.993 Y43.181 E41.92307
G1 X187.785 Y43.616 E41.95313
G1 X188.536 Y44.118 E41.98317
G1 X189.239 Y44.685 E42.01321
G1 X189.889 Y45.312 E42.04325
G1 X190.481 Y45.994 E42.07328
G1 X191.011 Y46.725 E42.10332
G1 X191.473 Y47.501 E42.13335
G1 X191.866 Y48.314 E42.16339
G1 X192.184 Y49.159 E42.19342
G1 X192.427 Y50.029 E42.22346
G1 X192.592 Y50.917 E42.2535
G1 X192.687 Y52.047 E42.29122
G1 X192.7 Y52.654 E42.31141
G1 X192.699 Y83.254 E43.32917
G1 X192.692 Y83.776 E43.34653
G1 X192.662 Y84.429 E43.36828
G1 X192.592 Y85.33 E43.39833
G1 X192.529 Y85.948 E43.419
G1 X192.387 Y86.839 E43.449
G1 X192.199 Y87.606 E43.47527
G1 X191.987 Y88.33 E43.50036
G1 X191.836 Y88.807 E43.517
G1 X191.526 Y89.655 E43.54703
G1 X191.184 Y90.391 E43.57403
G1 X190.835 Y91.061 E43.59915
G1 X190.568 Y91.544 E43.61751
G1 X190.096 Y92.314 E43.64755
G1 X189.521 Y93.085 E43.67954
G1 X188.912 Y93.826 E43.71144
G1 X188.308 Y94.498 E43.74149
G1 X187.615 Y95.141 E43.77293
G1 X187.012 Y95.645 E43.79907
G1 X184.623 Y97.594 E43.90162
G1 X182.686 Y99.274 E43.9869
G1 X180.831 Y100.978 E44.07068
G1 X179.001 Y102.757 E44.15556
G1 X177.213 Y104.598 E44.24092
G1 X175.503 Y106.459 E44.32498
G1 X173.866 Y108.346 E44.40807
G1 X172.217 Y110.36 E44.49464
G1 X170.7 Y112.32 E44.57708
G1 X169.185 Y114.4 E44.66266
G1 X167.744 Y116.5 E44.74737
G1 X166.377 Y118.617 E44.83119
G1 X165.055 Y120.799 E44.91604
G1 X163.803 Y123.001 E45.00029
G1 X162.605 Y125.256 E45.08522
G1 X161.487 Y127.514 E45.16902
G1 X160.428 Y129.813 E45.25321
